icon-themes/sifr_svg/cmd/lc_graphicfilterremovenoise.svg

<svg viewBox="0 0 24 24" xmlns="http://www.w3.org/2000/svg"><path d="m11 2-7 6v8l7 6h1v-20zm-1 3.484375v13.033203l-4-3.433594v-6.1679684zm-9 3.515625v6h2v-6zm13.1875 4c-.662698 0-1.1875.548988-1.1875 1.21875v6.5625c0 .669759.524802 1.21875 1.1875 1.21875h6.8125c.662699 0 1-.548991 1-1.21875v-6.5625c0-.669762-.337286-1.21875-1-1.21875zm-.1875 1h1l2.5 2.5 2.5-2.5h1v1l-2.5 2.5 2.5 2.339844v1h-1l-2.5-2.339844-2.5 2.5h-1v-1l2.5-2.5-2.5-2.5z" fill="#555753"/></svg>

<svg xmlns="http://www.w3.org/2000/svg" viewBox="0 0 24 24">
  <path
     style="fill:#555753"
     d="M 11 2 L 4 8 L 4 16 L 4 16 L 11 22 L 11 22 L 12 22 L 12 2 L 11 2 L 11 2 z M 10 5.484375 L 10 18.517578 L 6 15.083984 L 6 8.9160156 L 10 5.484375 z M 1 9 L 1 15 L 3 15 L 3 9 L 1 9 z M 14.1875 13 C 13.524802 13 13 13.548988 13 14.21875 L 13 20.78125 C 13 21.451009 13.524802 22 14.1875 22 L 21 22 C 21.662699 22 22 21.451009 22 20.78125 L 22 14.21875 C 22 13.548988 21.662714 13 21 13 L 14.1875 13 z M 14 14 L 15 14 L 17.5 16.5 L 20 14 L 21 14 L 21 15 L 18.5 17.5 L 21 19.839844 L 21 20.839844 L 20 20.839844 L 17.5 18.5 L 15 21 L 14 21 L 14 20 L 16.5 17.5 L 14 15 L 14 14 z "
     />
</svg>
